vendor/shopware/storefront/Resources/app/storefront/dist/assets/icon/default/paper-pencil.svg

<svg xmlns="http://www.w3.org/2000/svg" width="24" height="24" viewBox="0 0 24 24">
  <path fill="#758CA3" fill-rule="evenodd" d="M8,2 L8,6 C8,6.55228475 7.55228475,7 7,7 L3,7 L3,21 C3,21.5522847 3.44771525,22 4,22 L16,22 C16.5522847,22 17,21.5522847 17,21 L17,14.4142136 L13.7071068,17.7071068 C13.5195704,17.8946432 13.2652165,18 13,18 L10,18 C9.44771525,18 9,17.5522847 9,17 L9,14 C9,13.7347835 9.10535684,13.4804296 9.29289322,13.2928932 L17,5.58578644 L17,3 C17,2.44771525 16.5522847,2 16,2 L8,2 Z M6,2.12601749 C4.59439271,2.4877958 3.4877958,3.59439271 3.12601749,5 L6,5 L6,2.12601749 Z M19,12.4142136 L19,21 C19,22.6568542 17.6568542,24 16,24 L4,24 C2.34314575,24 1,22.6568542 1,21 L1,6 C1,2.6862915 3.6862915,6.1284311e-15 7,5.32907052e-15 L16,0 C17.6568542,4.16333634e-15 19,1.34314575 19,3 L19,4 C19.2559223,4 19.5118446,4.09763107 19.7071068,4.29289322 L22.7071068,7.29289322 C23.0976311,7.68341751 23.0976311,8.31658249 22.7071068,8.70710678 L19,12.4142136 Z M12.5857864,16 L20.5857864,8 L19,6.41421356 L11,14.4142136 L11,16 L12.5857864,16 Z"/>
</svg>

<svg xmlns="http://www.w3.org/2000/svg" width="24" height="24" viewBox="0 0 24 24"><path fill="#758CA3" fill-rule="evenodd" d="M8 2v4c0 .5523-.4477 1-1 1H3v14c0 .5523.4477 1 1 1h12c.5523 0 1-.4477 1-1v-6.5858l-3.2929 3.293A1 1 0 0 1 13 18h-3c-.5523 0-1-.4477-1-1v-3a1 1 0 0 1 .2929-.7071L17 5.5858V3c0-.5523-.4477-1-1-1H8zm-2 .126C4.5944 2.4878 3.4878 3.5944 3.126 5H6V2.126zm13 10.2882V21c0 1.6569-1.3431 3-3 3H4c-1.6569 0-3-1.3431-3-3V6c0-3.3137 2.6863-6 6-6h9c1.6569 0 3 1.3431 3 3v1c.256 0 .5118.0976.7071.2929l3 3c.3905.3905.3905 1.0237 0 1.4142L19 12.4142zM12.5858 16l8-8L19 6.4142l-8 8V16h1.5858z"/></svg>
